assets/imgs/edit_icon/ol_list.svg

<svg viewBox="0 0 117.22 106.65" xmlns="http://www.w3.org/2000/svg"><g fill="#525566"><path d="m0 98.86 6-2.29a5.77 5.77 0 0 0 5.23 3.2c2.35 0 3.9-1.16 3.9-3.15 0-1.41-1.24-2.91-4.12-2.91h-3.34v-6.06h3.33a2.85 2.85 0 0 0 3.14-3.07 2.92 2.92 0 0 0 -3.14-2.91 4.59 4.59 0 0 0 -4 2.33l-6-2.2a11.09 11.09 0 0 1 10-6.1c5.85 0 9.79 3.4 9.79 8.34a7.39 7.39 0 0 1 -3.63 6.43 7.21 7.21 0 0 1 4.61 7c0 4.73-4.26 8.26-10.55 8.26-5.41.02-9.45-2.64-11.22-6.87z"/><path d="m11.08 50.63c2-1 4-2.2 4-4.19s-1.24-2.86-3.28-2.86a5.32 5.32 0 0 0 -4.8 2.9l-6.07-2.48a11.7 11.7 0 0 1 10.64-6.4c6.47 0 10.15 3.86 10.15 8.59 0 5-2.75 7.14-6.56 9.22-4.16 2.32-5.81 3.52-6.83 5.68h13.67v6.06h-21.56c0-8.92 4.61-13.4 10.64-16.52z"/><path d="m8 8.13h-4.57v-5.13c3 0 5-.71 5.81-3h5.5v29.05h-6.74z"/><rect height="24.26" rx="6.76" width="79.91" x="37.31" y="1.62"/><rect height="24.26" rx="6.76" width="79.91" x="37.31" y="42"/><rect height="24.26" rx="6.76" width="79.91" x="37.31" y="82.39"/></g></svg>

<svg xmlns="http://www.w3.org/2000/svg" viewBox="0 0 117.22 106.65"><defs><style>.cls-1{fill:#525566;}</style></defs><title>ol_list</title><g id="レイヤー_2" data-name="レイヤー 2"><g id="レイヤー_3" data-name="レイヤー 3"><path class="cls-1" d="M0,98.86l6-2.29a5.77,5.77,0,0,0,5.23,3.2c2.35,0,3.9-1.16,3.9-3.15,0-1.41-1.24-2.91-4.12-2.91H7.67V87.65H11a2.85,2.85,0,0,0,3.14-3.07A2.92,2.92,0,0,0,11,81.67,4.59,4.59,0,0,0,7,84l-6-2.2A11.09,11.09,0,0,1,11,75.7c5.85,0,9.79,3.4,9.79,8.34a7.39,7.39,0,0,1-3.63,6.43,7.21,7.21,0,0,1,4.61,7c0,4.73-4.26,8.26-10.55,8.26C5.81,105.75,1.77,103.09,0,98.86Z"/><path class="cls-1" d="M11.08,50.63c2-1,4-2.2,4-4.19s-1.24-2.86-3.28-2.86A5.32,5.32,0,0,0,7,46.48L.93,44A11.7,11.7,0,0,1,11.57,37.6c6.47,0,10.15,3.86,10.15,8.59,0,5-2.75,7.14-6.56,9.22C11,57.73,9.35,58.93,8.33,61.09H22v6.06H.44C.44,58.23,5.05,53.75,11.08,50.63Z"/><path class="cls-1" d="M8,8.13H3.43V3c3,0,5-.71,5.81-3h5.5V29.05H8Z"/><rect class="cls-1" x="37.31" y="1.62" width="79.91" height="24.26" rx="6.76"/><rect class="cls-1" x="37.31" y="42" width="79.91" height="24.26" rx="6.76"/><rect class="cls-1" x="37.31" y="82.39" width="79.91" height="24.26" rx="6.76"/></g></g></svg>
